X:2984390
T:Heather Island
T:Eilean Fraoich
C:William Mackenzie
S:Randy Miller (piano solo), Rod & Randy Miller, New England Chestnuts Vol. 2,
S:Alcazar Records FR 204, 1981.
H:I figured out the chords by ear from the recording, but later looked at
H:Randy's book $2The Fiddler's Throne$0 (Fiddlecase Books, 2004). To my
H:surprise there was complete agreement with Randy's chords in the book.
N:From NH Country Dance (URL below), along with many New England, Canadian & Swedish
N:tunes, and resources for abc notation and New England traditional music and dance.
%
N: Note #1: To preserve formatting (font, spacing, etc.), use the
N: file header at the URL below; just follow accompanying instructions.
%
N: Note #2: This abc code is optimized for use with abcm2ps, which is used by
N: EasyABC and other abc apps. To abc2svg for display or printing look to see if there
N: is a file optimized for abc2svg. If not you may need to adjust the spacing in places.
%
Z:abc-transcription Peter Yarensky. I rely heavily on careful listening to the
Z:named sources aided by software to hear details. While not perfect, known
Z:substantial differences from other written sources receive careful attention.
Z:abc-copyright Peter Yarensky. You may reproduce this tune freely but
Z:please include the entire abc file including all the notes.
%%writefields HQSD
U:s = !slide!
U:t = !trill!
F:Tunes Home Page - https://fiddle-tunes.nhcountrydance.com/
F:abc Header & its Usage - https://fiddle-tunes.nhcountrydance.com/header-page/
M:3/4
L:1/8
R:Waltz
G:Couples Dances ~ Waltzes
N: Tune Tags ~ Waltz, Scottish, William Mackenzie
K:Am
%%annotationfont  Palatino-Roman 16
%%indent 150
"@-170,0 Introduction"\
E4 G2 | E4 C2 | {E2}D4 C2 | (3B,CB, A,4 |
"Am" c4- cB | "Dm" A2 d4 | "G" B4- BA | "G" G6 |\
"Am" c4- cB | "Am" A4 A2 | "Am" c4 "G" d2 | "C" e6 |
"C" g4 e2 | "G" d4 c2 | "G" d2 e2 G2 | "G" G6 |\
"Am" A2 c4 | "Em" e4 g2 | "Am" e4 A2 | "G" B2 "Am" A4 ||
"C" g4- ge | "G" d4 g2 | "G" B4 "D7" A2 | "G" G6 |\
"Am" c4 B2 | "F" A4 A2 | "F" c2 "G" d4 | "C" e6 |
"C" g4 e2 | "G" d4 c2 | "G" d2 e2 G2 | "Em" G6 |\
"Am" A2 c4 | "Em" e4 g2 | "Am" e4 A2 | "G" (3BcB "Am" A4 |]

